!!!!SEGMENT: pl-sa--l-1643--032_anonim--cantemus-domino.krn
!!!cenid: 16xx:1387
!!!COM: Anonim
!!!COM-rismid: pe30004985
!!!CDT:
!!!CNT:
!!!OTL: Cantemus Domino
!!!PDT:
!!!AGN: Sacred
!!!SMS-siglum: PL-SA
!!!SMS-shelfmark: L 1643
!!!SMS-shelfwork: 032 W
!!!SMS-variant:
!!!SMS-altvar:
!!!NIFC-rismid: 1001063340
!!!URL-scan: http://repozytorium.nifc.pl/skany/pl-sa-nut--l1643
!!!ONB-nifc: UWAGA: 8 ksiąg. Primi chori: 1mus Cantus (55-56), C 2dus (55-56), C 3tius (54-55), Bassus (51-52); Secondi chori: Primus Cantus (53-54), C 2dus (55-56), Altus (55-56), Bassus (55-56). Nie dodawać pustych linii, chyba że w rękopisie pojawiają się dodatkowe oznaczenia dotyczące pełnej obsady (a 4, a 8 itp.)
**kern	**text	**kern	**text	**kern	**text	**kern	**text	**kern	**text	**kern	**text	**kern	**text	**kern	**text
*part8	*part8	*part7	*part7	*part6	*part6	*part5	*part5	*part4	*part4	*part3	*part3	*part2	*part2	*part1	*part1
*staff8	*staff8	*staff7	*staff7	*staff6	*staff6	*staff5	*staff5	*staff4	*staff4	*staff3	*staff3	*staff2	*staff2	*staff1	*staff1
*Iempty	*	*Iempty	*	*Iempty	*	*Iempty	*	*Iempty	*	*Iempty	*	*Iempty	*	*Iempty	*
*I"Baſsus 2di Chori	*	*I"Altus secundi Chori.	*	*I"Cantus 2dus Secundi Chori.	*	*I"Primus Cantus 2di Chori	*	*I"Bassus Primi Chori.	*	*I"Cantus 3tius Primi Chori	*	*I"Cantus 2dus Primi Chori.	*	*I"1m(us) Cantus Primi Chori	*
*I'Coro 2 B	*	*I'Coro 2 A	*	*I'Coro 2 C 2	*	*I'Coro 2 C 1	*	*I'Coro 1 B	*	*I'Coro 1 C 3	*	*I'Coro 2 C 2	*	*I'Coro 1 C 1	*
*clefC3	*	*clefC3	*	*clefC1	*	*clefG2	*	*clefC3	*	*clefC2	*	*clefC1	*	*clefG2	*
*k[]	*	*k[]	*	*k[]	*	*k[]	*	*k[]	*	*k[]	*	*k[]	*	*k[]	*
*d:	*	*d:	*	*d:	*	*d:	*	*d:	*	*d:	*	*d:	*	*d:	*
*M3/2	*	*M3/2	*	*M3/2	*	*M3/2	*	*M3/2	*	*M3/2	*	*M3/2	*	*M3/2	*
=1-	=1-	=1-	=1-	=1-	=1-	=1-	=1-	=1-	=1-	=1-	=1-	=1-	=1-	=1-	=1-
00.r	.	00.r	.	00.r	.	00.r	.	1A	Can-	1a	Can-	1cc#X	Can-	1ee	Can-
.	.	.	.	.	.	.	.	1A/	-te-	1a\	-te-	1cc#\	-te-	1ee\	-te-
!	!	!	!	!	!	!	!	!	!	!LO:TX:t=P:problem:oddech jako rozdzielacz słów:global	!	!LO:TX:t=P:problem:oddech jako rozdzielacz słów:global	!	!	!
.	.	.	.	.	.	.	.	1d	-mus	1f,<	-mus	1dd,<	-mus	1ff	-mus
=2-	=2-	=2-	=2-	=2-	=2-	=2-	=2-	=2-	=2-	=2-	=2-	=2-	=2-	=2-	=2-
.	.	.	.	.	.	.	.	0c#X	Do-	0a	Do-	0ee	Do-	0ee	Do-
.	.	.	.	.	.	.	.	1d	-mi-	1a	-mi-	1ff	-mi-	1dd	-mi-
=3-	=3-	=3-	=3-	=3-	=3-	=3-	=3-	=3-	=3-	=3-	=3-	=3-	=3-	=3-	=3-
1A	Can-	1a	Can-	1cc#X	Can-	1ee	Can-	0A	-no	0a	-no	0ee	-no	0cc#X	-no
1A/	-te-	1a\	-te-	1cc#\	-te-	1ee\	-te-	.	.	.	.	.	.	.	.
1d	-mus	1f	-mus	1dd	-mus	1ff	-mus	1r	.	1r	.	1r	.	1r	.
=4-	=4-	=4-	=4-	=4-	=4-	=4-	=4-	=4-	=4-	=4-	=4-	=4-	=4-	=4-	=4-
0c#X	Do-	0a	Do-	0ee	Do-	0ee	Do-	0.r	.	0.r	.	0.r	.	0.r	.
1d	-mi-	1a	-mi-	1ff	-mi-	1dd	-mi-	.	.	.	.	.	.	.	.
=5-	=5-	=5-	=5-	=5-	=5-	=5-	=5-	=5-	=5-	=5-	=5-	=5-	=5-	=5-	=5-
0A	-no	0a	-no	0ee	-no	0cc#X	-no	1A	can-	1a	can-	1cc#X	can-	1ee	can-
.	.	.	.	.	.	.	.	1A/	-te-	1a\	-te-	1cc#\	-te-	1ee\	-te-
1r	.	1r	.	1r	.	1r	.	1d	-mus	1f	-mus	1dd	-mus	1ff	-mus
=6-	=6-	=6-	=6-	=6-	=6-	=6-	=6-	=6-	=6-	=6-	=6-	=6-	=6-	=6-	=6-
0.r	.	0.r	.	0.r	.	0.r	.	0c#X	Do-	0a	Do-	0ee	Do-	0ee	Do-
.	.	.	.	.	.	.	.	1d	-mi-	1a	-mi-	1ff	-mi-	1dd	-mi-
=7-	=7-	=7-	=7-	=7-	=7-	=7-	=7-	=7-	=7-	=7-	=7-	=7-	=7-	=7-	=7-
1A	can-	1a	can-	1cc#X	can-	1ee	can-	0A	-no	0a	-no	0ee	-no	0cc#X	-no
1A/	-te-	1a\	-te-	1cc#\	-te-	1ee\	-te-	.	.	.	.	.	.	.	.
1d	-mus	1f	-mus	1dd	-mus	1ff	-mus	1r	.	1r	.	1r	.	1r	.
=8-	=8-	=8-	=8-	=8-	=8-	=8-	=8-	=8-	=8-	=8-	=8-	=8-	=8-	=8-	=8-
!	!	!	!	!	!	!	!	!	!	!	!	!	!	!LO:SIC:v:t=custos ff	!
0c#X	Do-	0a	Do-	0ee	Do-	0ee	Do-	0.r	.	0.r	.	0.r	.	0.r	.
1d	-mi-	1a	-mi-	1ff	-mi-	1dd	-mi-	.	.	.	.	.	.	.	.
!	!	!	!	!	!	!	!	!	!	!	!	!	!	!LO:LB:g=original	!
=9-	=9-	=9-	=9-	=9-	=9-	=9-	=9-	=9-	=9-	=9-	=9-	=9-	=9-	=9-	=9-
*M2/2	*	*M2/2	*	*M2/2	*	*M2/2	*	*M2/2	*	*M2/2	*	*M2/2	*	*M2/2	*
*met(C|)	*	*met(C|)	*	*met(C|)	*	*met(C|)	*	*met(C|)	*	*met(C|)	*	*met(C|)	*	*met(C|)	*
!	!	!LO:TX:t=P:problem:oddech jako rozdzielacz słów:global	!	!	!	!	!	!	!	!	!	!	!	!	!
2A/	-no	2a,<\	-no	2ee\	-no	2cc#X\	-no	1r	.	1r	.	1r	.	1r	.
4.F/	glo-	4.a\	glo-	4.a\	glo-	4.ff\	glo-	.	.	.	.	.	.	.	.
8F/	-ri-	8a\	-ri-	8a\	-ri-	8ff\	-ri-	.	.	.	.	.	.	.	.
=10-	=10-	=10-	=10-	=10-	=10-	=10-	=10-	=10-	=10-	=10-	=10-	=10-	=10-	=10-	=10-
4F/	-o-	4a\	-o-	4ccny\	-o-	4ff\	-o-	2r	.	2r	.	2r	.	2r	.
!LO:SIC:v:t=custos f	!	!	!	!	!	!LO:SIC:v:t=custos cc	!	!	!	!	!	!	!	!	!
4cny/	-se	4g\	-se	4cc\	-se	4ee\	-se	.	.	.	.	.	.	.	.
!LO:LB:g=original	!	!	!	!	!	!LO:LB:g=original	!	!	!	!	!	!	!	!	!
2.f\	e-	2.f\	e-	2.cc\	e-	2.ccny\	e-	4.F/	glo-	4.a\	glo-	4.a\	glo-	4.ff\	glo-
!	!	!	!	!	!	!	!	!LO:SIC:v:t=custos F	!	!	!	!	!	!	!
.	.	.	.	.	.	.	.	8F/	-ri-	8a\	-ri-	8a\	-ri-	8ff\	-ri-
!	!	!	!	!	!	!	!	!LO:LB:g=original	!	!	!	!	!	!	!
=11-	=11-	=11-	=11-	=11-	=11-	=11-	=11-	=11-	=11-	=11-	=11-	=11-	=11-	=11-	=11-
.	.	.	.	.	.	.	.	4F/	-o-	4a\	-o-	4a\	-o-	4ff\	-o-
!	!	!LO:SIC:v:t=custos f	!	!LO:SIC:v:t=custos a	!	!	!	!LO:TX:t=P:problem:oddech jako rozdzielacz słów:global	!	!	!	!LO:SIC:v:t=custos cc	!	!	!
4c/	-nim	4g\	-nim	4cc\	-nim	4cc\	-nim	4cny,</	-se	4g,<\	-se	4ccny\	-se	4ee\	-se
!	!	!LO:LB:g=original	!	!LO:LB:g=original	!	!	!	!	!	!	!	!LO:LB:g=original	!	!	!
*	*ij	*clefC2	*ij	*	*ij	*	*ij	*	*	*	*	*	*	*	*
4.F/	glo-	4.a\	glo-	4.a\	glo-	4.cc\	glo-	2.f\	e-	2.f\	e-	2.cc\	e-	2ff\	e-
8F/	-ri-	8a\	-ri-	8a\	-ri-	8cc\	-ri-	.	.	.	.	.	.	.	.
=12-	=12-	=12-	=12-	=12-	=12-	=12-	=12-	=12-	=12-	=12-	=12-	=12-	=12-	=12-	=12-
4F/	-o-	4a\	-o-	4a\	-o-	4ff\	-o-	.	.	.	.	.	.	2ccny\	-nim
!	!	!	!	!	!	!	!	!	!	!LO:SIC:v:t=custos a	!	!	!	!	!
4c/	-se	4g\	-se	4cc\	-se	4ee\	-se	4c/	-nim	4g\	-nim	4a\	-nim	.	.
!	!	!	!	!	!	!	!	!	!	!LO:LB:g=original	!	!	!	!	!
2.f\	e-	2.f\	e-	2.cc\	e-	2.cc\	e-	4.F/	glo-	4.a\	glo-	4.a\	glo-	4r	.
.	.	.	.	.	.	.	.	.	.	.	.	.	.	8ff\	glo-
.	.	.	.	.	.	.	.	8F/	-ri-	8a\	-ri-	8a\	-ri-	8ff\	-ri-
=13-	=13-	=13-	=13-	=13-	=13-	=13-	=13-	=13-	=13-	=13-	=13-	=13-	=13-	=13-	=13-
.	.	.	.	.	.	.	.	4F/	-o-	4a\	-o-	4a\	-o-	4ff\	-o-
4c/	-nim	4g\	-nim	4cc\	-nim	4cc\	-nim	4c/	-se	4g\	-se	4cc\	-se	4ee\	-se
*	*Xij	*	*Xij	*	*Xij	*	*Xij	*	*	*	*	*	*	*	*
2r	.	2r	.	2r	.	2r	.	2.f\	e-	2.a\	e-	2.cc\	e-	2.ff\	e-
=14-	=14-	=14-	=14-	=14-	=14-	=14-	=14-	=14-	=14-	=14-	=14-	=14-	=14-	=14-	=14-
4r	.	4r	.	4r	.	4r	.	.	.	.	.	.	.	.	.
4c/	ma-	4g\	ma-	4cc\	ma-	4ee\	ma-	4c/	-nim	4g\	-nim	4a\	-nim	4ee\	-nim
4d\	-gni-	4f\	-gni-	4a\	-gni-	4ff\	-gni-	2r	.	2r	.	2r	.	2r	.
4A/	-fi-	4a\	-fi-	4cc\	-fi-	4ee\	-fi-	.	.	.	.	.	.	.	.
=15-	=15-	=15-	=15-	=15-	=15-	=15-	=15-	=15-	=15-	=15-	=15-	=15-	=15-	=15-	=15-
4d\	-ca-	4a\	-ca-	4b\	-ca-	4dd\	-ca-	4r	.	4r	.	4r	.	4r	.
4e\	-tus	4g#X\	-tus	4b\	-tus	4b/	-tus	4e\	ma-	4g#X\	ma-	4ee\	ma-	4ee\	ma-
2A/	eſt	2a\	eſt	2a\	eſt	2cc#X\	eſt	4a\	-gni-	4a\	-gni-	4cc#X\	-gni-	4ee\	-gni-
.	.	.	.	.	.	.	.	4A/	-fi-	4a\	-fi-	4cc#\	-fi-	4ee\	-fi-
=16-	=16-	=16-	=16-	=16-	=16-	=16-	=16-	=16-	=16-	=16-	=16-	=16-	=16-	=16-	=16-
!	!	!	!	!	!	!	!	!	!	!	!	!	!	!LO:TX:b:t=fa	!
4r	.	4r	.	4r	.	4r	.	4d\	-ca-	4a\	-ca-	4b\	-ca-	4ff\	-ca-
*	*	*	*ij	*	*ij	*	*ij	*	*	*	*	*	*	*	*
4e\	ma-	4g#X\	ma-	4ee\	ma-	4ee\	ma-	4e\	-tus	4g#X\	-tus	4b\	-tus	4ee\	-tus
!	!	!	!	!LO:SIC:v:s=4cc#\	!	!	!	!	!	!	!	!	!	!	!
4a\	-gni-	4e/	-gni-	4cc\	-gni-	4ee\	-gni-	2A/	eſt	2a\	eſt	2cc#X\	eſt	2ee\	eſt
4A/	-fi-	4a\	-fi-	4cc\	-fi-	4ee\	-fi-	.	.	.	.	.	.	.	.
=17-	=17-	=17-	=17-	=17-	=17-	=17-	=17-	=17-	=17-	=17-	=17-	=17-	=17-	=17-	=17-
4d\	-ca-	4a\	-ca-	4.b\	-ca-	4ff\	-ca-	00r	.	00r	.	00r	.	00r	.
4e\	-tus	4g#X\	-tus	.	.	4ee\	-tus	.	.	.	.	.	.	.	.
.	.	.	.	8b\	-tus	.	.	.	.	.	.	.	.	.	.
!LO:TX:t=P:problem:oddech jako rozdzielacz słów:global	!	!	!	!	!	!	!	!	!	!	!	!	!	!	!
2A,</	eſt	2a,<\	eſt	2cc#X\	eſt	2ee\	eſt	.	.	.	.	.	.	.	.
*	*	*	*Xij	*	*Xij	*	*Xij	*	*	*	*	*	*	*	*
=18-	=18-	=18-	=18-	=18-	=18-	=18-	=18-	=18-	=18-	=18-	=18-	=18-	=18-	=18-	=18-
2A/	e-	2a\	e-	2cc#\	e-	2ee\	e-	.	.	.	.	.	.	.	.
4A/	-qu(um)	4a\	-quum	4cc#\	-qu(um)	4ee\	-quum	.	.	.	.	.	.	.	.
!	!	!	!	!	!	!LO:SIC:v:t=custos dd	!	!	!	!	!	!	!	!	!
4A/	et	4a\	et	4a\	et	4cc#X\	et	.	.	.	.	.	.	.	.
!	!	!	!	!	!	!LO:LB:g=original	!	!	!	!	!	!	!	!	!
=19-	=19-	=19-	=19-	=19-	=19-	=19-	=19-	=19-	=19-	=19-	=19-	=19-	=19-	=19-	=19-
4B/	a-	4gny\	a-	4dd\	a-	4dd\	a-	.	.	.	.	.	.	.	.
4c#X/	-scen-	4e/	-ſcen-	4a\	-ſcen-	4ee\	-ſcen-	.	.	.	.	.	.	.	.
!LO:SIC:v:t=custos A	!	!	!	!	!	!	!	!	!	!	!	!	!	!	!
2d\	-so-	2a\	-so-	2dd\	-ſo-	2ff\	-so-	.	.	.	.	.	.	.	.
!LO:LB:g=original	!	!	!	!	!	!	!	!	!	!	!	!	!	!	!
=20-	=20-	=20-	=20-	=20-	=20-	=20-	=20-	=20-	=20-	=20-	=20-	=20-	=20-	=20-	=20-
!	!	!LO:SIC:v:t=custos f	!	!	!	!	!	!	!	!	!	!	!	!	!
4A/	-rem	4a\	-rem	4ccny\	-rem	4ee\	-rem	.	.	.	.	.	.	.	.
!	!	!LO:LB:g=original	!	!LO:SIC:v:t=custos b-	!	!	!	!	!	!	!	!	!	!	!
4B-X/	de-	4f\	de-	4dd\	de-	4dd\	de-	.	.	.	.	.	.	.	.
!	!	!	!	!LO:LB:g=original	!	!	!	!	!	!	!	!	!	!	!
2G/	-ie-	2g\	-ie-	2b-X\	-ie-	2ee\	-ie-	.	.	.	.	.	.	.	.
=21-	=21-	=21-	=21-	=21-	=21-	=21-	=21-	=21-	=21-	=21-	=21-	=21-	=21-	=21-	=21-
4A/	-cit	4e/	-cit	4cc\	-cit	4ee\	-cit	1r	.	1r	.	1r	.	1r	.
4B-X/	in	4g\	in	4dd\	in	4dd\	in	.	.	.	.	.	.	.	.
2A/	ma-	2e/	ma-	(4dd\	ma-	2ee\	ma-	.	.	.	.	.	.	.	.
.	.	.	.	4cc#X\)	.	.	.	.	.	.	.	.	.	.	.
=22-	=22-	=22-	=22-	=22-	=22-	=22-	=22-	=22-	=22-	=22-	=22-	=22-	=22-	=22-	=22-
1d	-re	1f#X	-re	1dd	-re	1dd	-re	2d\	e-	2f#X\	e-	2a\	e-	2dd\	e-
.	.	.	.	.	.	.	.	4d\	-quum	4f#\	-quum	4a,<\	-quum	4dd\	-quum
.	.	.	.	.	.	.	.	4d\	et	4f#\	et	4a\	et	4dd\	et
=23-	=23-	=23-	=23-	=23-	=23-	=23-	=23-	=23-	=23-	=23-	=23-	=23-	=23-	=23-	=23-
0r	.	0r	.	0r	.	0r	.	4e\	a-	4gny\	a-	4ccny\	a-	4cc\	a-
!	!	!	!	!	!	!	!	!	!	!	!	!	!	!LO:SIC:v:t=custos dd	!
.	.	.	.	.	.	.	.	4f#X\	-ſcen-	4a\	-ſcen-	4a\	-ſcen-	4dd\	-ſcen-
!	!	!	!	!	!	!	!	!	!	!	!	!	!	!LO:LB:g=original	!
.	.	.	.	.	.	.	.	2g\	-ſo-	2g\	-so-	2b\	-ſo-	2dd\	-so-
=24-	=24-	=24-	=24-	=24-	=24-	=24-	=24-	=24-	=24-	=24-	=24-	=24-	=24-	=24-	=24-
!	!	!	!	!	!	!	!	!	!	!	!	!	!	!LO:TX:t=P:problem:oddech jako rozdzielacz słów:global	!
.	.	.	.	.	.	.	.	4fny,<\	-rem	4a,<\	-rem	4cc,<\	-rem	4ff,<\	-rem
.	.	.	.	.	.	.	.	4d\	de-	4a\	de-	4dd\	de-	4ff\	de-
.	.	.	.	.	.	.	.	2g\	-ie-	2g\	-ie-	2b\	-ie-	2dd\	-ie-
=25-	=25-	=25-	=25-	=25-	=25-	=25-	=25-	=25-	=25-	=25-	=25-	=25-	=25-	=25-	=25-
2r	.	2r	.	2r	.	2r	.	4f\	-cit	4a\	-cit	4cc\	-cit	4ff\	-cit
!	!	!	!	!	!	!	!	!	!	!	!	!LO:SIC:v:t=custos dd	!	!	!
.	.	.	.	.	.	.	.	4d\	in	4a\	in	4dd\	in	4ff\	in
!	!	!	!	!	!	!	!	!LO:SIC:v:t=custos d	!	!	!	!LO:LB:g=original	!	!	!
4r	.	4r	.	4r	.	4r	.	2a\	ma-	2g\	ma-	(4dd\	ma-	2ee\	ma-
*	*	*	*ij	*	*	*	*	*	*	*	*	*	*	*	*
4a\	de-	4a\	de-	4a\	de-	4ee\	de-	.	.	.	.	4cc#X\)	.	.	.
!	!	!	!	!	!	!	!	!LO:LB:g=original	!	!	!	!	!	!	!
=26-	=26-	=26-	=26-	=26-	=26-	=26-	=26-	=26-	=26-	=26-	=26-	=26-	=26-	=26-	=26-
!	!	!	!	!	!	!	!	!	!	!LO:SIC:v:t=custos a	!	!	!	!	!
2f\	-ie-	2a\	-ie-	2a\	-ie-	2ff\	-ie-	1d	-re	1fny	-re	1dd	-re	1dd	-re
4d\	-cit	4a\	-cit	4dd\	-cit	4ff\	-cit	.	.	.	.	.	.	.	.
4d\	in	4a\	in	4dd\	in	4ff\	in	.	.	.	.	.	.	.	.
!	!	!	!	!	!	!	!	!	!	!LO:LB:g=original	!	!	!	!	!
=27-	=27-	=27-	=27-	=27-	=27-	=27-	=27-	=27-	=27-	=27-	=27-	=27-	=27-	=27-	=27-
2a\	ma-	2a\	ma-	(4dd\	ma-	2ee\	ma-	4r	.	4r	.	4r	.	4r	.
.	.	.	.	4cc#X\)	.	.	.	4A/	de-	4a\	de-	4cc#X\	de-	4ee\	de-
2d\	-re	2a\	-re	2a\	-re	2dd\	-re	2d\	-ie-	2a\	-ie-	2dd\	-ie-	2ff\	-ie-
*	*	*	*Xij	*	*	*	*	*	*	*	*	*	*	*	*
=28-	=28-	=28-	=28-	=28-	=28-	=28-	=28-	=28-	=28-	=28-	=28-	=28-	=28-	=28-	=28-
4r	.	4r	.	4r	.	4r	.	4d\	-cit	4a\	-cit	4dd\	-cit	4ff\	-cit
*	*	*	*	*	*	*	*ij	*	*	*	*	*	*	*	*
4d\	de-	4a\	de-	4a\	de-	4ee\	de-	4d\	in	4a\	in	4dd\	in	4ff\	in
2a\	-ie-	2a\	-ie-	2a\	-ie-	2ff\	-ie-	2A/	ma-	2a\	ma-	(4dd\	ma-	2ee\	ma-
.	.	.	.	.	.	.	.	.	.	.	.	4cc#X\)	.	.	.
=29-	=29-	=29-	=29-	=29-	=29-	=29-	=29-	=29-	=29-	=29-	=29-	=29-	=29-	=29-	=29-
4f\	-cit	4a\	-cit	4a\	-cit	4ff\	-cit	2d\	-re	2a\	-re	2dd\	-re	2dd,<\	-re
4d\	in	4a\	in	4dd\	in	4ff\	in	.	.	.	.	.	.	.	.
2a\	ma-	2a\	ma-	(4dd\	ma-	2ee\	ma-	4r	.	4r	.	4r	.	4r	.
.	.	.	.	4cc#X\)	.	.	.	4A/	de-	4a\	de-	4cc#X\	de-	4ee\	de-
=30-	=30-	=30-	=30-	=30-	=30-	=30-	=30-	=30-	=30-	=30-	=30-	=30-	=30-	=30-	=30-
2d\	-re	2a\	-re	2dd\	-re	2dd\	-re	2d\	-ie-	2f\	-ie-	2a\	-ie-	2ff\	-ie-
*	*	*	*	*	*	*	*Xij	*	*	*	*	*	*	*	*
2r	.	2r	.	2r	.	2r	.	4c\	-cit	4g\	-cit	4ccny\	-cit	4ee\	-cit
.	.	.	.	.	.	.	.	4A/	in	4a,<\	in	4cc\	in	4cc\	in
=31-	=31-	=31-	=31-	=31-	=31-	=31-	=31-	=31-	=31-	=31-	=31-	=31-	=31-	=31-	=31-
00r	.	00r	.	00r	.	00r	.	2e\	ma-	(4a\	ma-	2b\	ma-	2ee\	ma-
.	.	.	.	.	.	.	.	.	.	4g#X\)	.	.	.	.	.
.	.	.	.	.	.	.	.	2A,</	-re	2a,<\	-re	2a,<\	-re	2cc,<\	-re
=32-	=32-	=32-	=32-	=32-	=32-	=32-	=32-	=32-	=32-	=32-	=32-	=32-	=32-	=32-	=32-
.	.	.	.	.	.	.	.	2.d\	for-	2.f#X\	for-	2.a\	for-	2.dd\	for-
.	.	.	.	.	.	.	.	4c/	-ti	4f#\	-ti	4a\	-ti	4dd\	-ti
=33-	=33-	=33-	=33-	=33-	=33-	=33-	=33-	=33-	=33-	=33-	=33-	=33-	=33-	=33-	=33-
.	.	.	.	.	.	.	.	2B/	tu-	2gny\	tu-	2b\	tu-	2dd\	tu-
!	!	!	!	!	!	!	!	!	!	!	!	!	!	!LO:SIC:v:t=custos cc	!
.	.	.	.	.	.	.	.	2c,</	-do	2g,<\	-do	2g,</	-do	2ee\	-do
!	!	!	!	!	!	!	!	!	!	!	!	!	!	!LO:PB:g=original	!
=34-	=34-	=34-	=34-	=34-	=34-	=34-	=34-	=34-	=34-	=34-	=34-	=34-	=34-	=34-	=34-
.	.	.	.	.	.	.	.	2A/	et	2fny\	et	2cc\	et	2.cc\	et
.	.	.	.	.	.	.	.	2B/	laus	2f\	laus	2b,<\	laus	.	.
.	.	.	.	.	.	.	.	.	.	.	.	.	.	4dd,<\	laus
=35-	=35-	=35-	=35-	=35-	=35-	=35-	=35-	=35-	=35-	=35-	=35-	=35-	=35-	=35-	=35-
0r	.	0r	.	0r	.	0r	.	1.c	me-	4e/	me-	2g/	me-	4ee\	me-
.	.	.	.	.	.	.	.	.	.	4f\	.	.	.	4dd\	.
.	.	.	.	.	.	.	.	.	.	4g\	.	1cc\	.	4cc\	.
.	.	.	.	.	.	.	.	.	.	4f\	.	.	.	4b/	.
=36-	=36-	=36-	=36-	=36-	=36-	=36-	=36-	=36-	=36-	=36-	=36-	=36-	=36-	=36-	=36-
.	.	.	.	.	.	.	.	.	.	4e\	.	.	.	2cc\	.
!	!	!	!	!	!	!	!	!	!	!LO:SIC:v:t=custos g	!	!	!	!	!
.	.	.	.	.	.	.	.	.	.	4f\	.	.	.	.	.
!	!	!	!	!	!	!	!	!	!	!LO:PB:g=original	!	!LO:SIC:v:t=custos a	!	!	!
.	.	.	.	.	.	.	.	2G,</	-a	2g\	-a	2b\	-a	2dd,<\	-a
!	!	!	!	!	!	!	!	!	!	!	!	!LO:PB:g=original	!	!	!
=37-	=37-	=37-	=37-	=37-	=37-	=37-	=37-	=37-	=37-	=37-	=37-	=37-	=37-	=37-	=37-
!	!	!	!	!	!	!LO:SIC:v:t=custos dd	!	!	!	!	!	!	!	!	!
1r	.	1r	.	1r	.	1r	.	2.d\	Do-	4f#X\	Do-	2.a\	Do-	2.dd\	Do-
.	.	.	.	.	.	.	.	.	.	4e\	.	.	.	.	.
.	.	.	.	.	.	.	.	.	.	4.f#X\	.	.	.	.	.
.	.	.	.	.	.	.	.	4d\	-mi-	.	.	4a\	-mi-	4dd\	-mi-
.	.	.	.	.	.	.	.	.	.	8f#\	-mi-	.	.	.	.
!	!	!	!	!	!	!LO:LB:g=original	!	!	!	!	!	!	!	!	!
=38-	=38-	=38-	=38-	=38-	=38-	=38-	=38-	=38-	=38-	=38-	=38-	=38-	=38-	=38-	=38-
2.g\	for-	2.g\	for-	2.bny\	for-	2.dd\	for-	1G	-nus	1g	-nus	1b	-nus	1dd	-nus
!	!	!	!	!LO:SIC:v:t=custos cc	!	!	!	!	!	!	!	!	!	!	!
4f\	-ti-	4g\	-ti-	4b\	-ti-	4dd\	-ti-	.	.	.	.	.	.	.	.
!	!	!	!	!LO:LB:g=original	!	!	!	!	!	!	!	!	!	!	!
=39-	=39-	=39-	=39-	=39-	=39-	=39-	=39-	=39-	=39-	=39-	=39-	=39-	=39-	=39-	=39-
!	!	!LO:SIC:v:t=custos a	!	!	!	!	!	!LO:SIC:v:t=custos c	!	!	!	!	!	!	!
2e\	-tu-	2g\	-tu-	2ccny\	-tu-	2ee\	-tu-	00r	.	00r	.	00r	.	00r	.
!LO:SIC:v:t=custos d	!	!LO:LB:g=original	!	!	!	!	!	!	!	!	!	!	!	!	!
2f\	-do	2a\	-do	2a\	-do	2ccny\	-do	.	.	.	.	.	.	.	.
!LO:LB:g=original	!	!	!	!	!	!	!	!	!	!	!	!	!	!	!
=40-	=40-	=40-	=40-	=40-	=40-	=40-	=40-	=40-	=40-	=40-	=40-	=40-	=40-	=40-	=40-
2.d\	et	2.a\	et	2.dd\	et	2.ff\	et	.	.	.	.	.	.	.	.
4d\	laus	4a\	laus	4dd\	laus	4ff\	laus	.	.	.	.	.	.	.	.
=41-	=41-	=41-	=41-	=41-	=41-	=41-	=41-	=41-	=41-	=41-	=41-	=41-	=41-	=41-	=41-
2e\	me-	2g\	me-	2cc\	me-	2ee\	me-	.	.	.	.	.	.	.	.
2f\	-a	2a\	-a	2cc\	-a	2cc\	-a	.	.	.	.	.	.	.	.
=42-	=42-	=42-	=42-	=42-	=42-	=42-	=42-	=42-	=42-	=42-	=42-	=42-	=42-	=42-	=42-
2.d\	Do-	2.fny\	Do-	2cc\	Do-	2.ff\	Do-	.	.	.	.	.	.	.	.
.	.	.	.	2b\	-mi-	.	.	.	.	.	.	.	.	.	.
4d\	-mi-	4f\	-mi-	.	.	4ff\	-mi-	.	.	.	.	.	.	.	.
!	!	!	!	!	!	!	!	!LO:PB:g=original	!	!	!	!	!	!	!
=43-	=43-	=43-	=43-	=43-	=43-	=43-	=43-	=43-	=43-	=43-	=43-	=43-	=43-	=43-	=43-
1cny	-nus	1g	-nus	1cc	-nus	1ee	-nus	2.c/	for-	2.g\	for-	2.cc\	for-	2.ee\	for-
.	.	.	.	.	.	.	.	4B/	-ti-	4g\	-ti-	4cc\	-ti-	4dd\	-ti-
=44-	=44-	=44-	=44-	=44-	=44-	=44-	=44-	=44-	=44-	=44-	=44-	=44-	=44-	=44-	=44-
00r	.	00r	.	00r	.	00r	.	2A/	-tu-	2a\	-tu-	2cc\	-tu-	2cc\	-tu-
.	.	.	.	.	.	.	.	2B/	-do	2g\	-do	2b,<\	-do	2dd\	-do
=45-	=45-	=45-	=45-	=45-	=45-	=45-	=45-	=45-	=45-	=45-	=45-	=45-	=45-	=45-	=45-
.	.	.	.	.	.	.	.	2.c/	et	4g\	et	2.g/	et	2.ee\	et
.	.	.	.	.	.	.	.	.	.	4e/	laus	.	.	.	.
.	.	.	.	.	.	.	.	.	.	2a\	me-	.	.	.	.
.	.	.	.	.	.	.	.	4d\	laus	.	.	4cc\	laus	4ee\	laus
=46-	=46-	=46-	=46-	=46-	=46-	=46-	=46-	=46-	=46-	=46-	=46-	=46-	=46-	=46-	=46-
.	.	.	.	.	.	.	.	2e\	me-	2g#X\	-a	2b\	me-	2ee\	me-
.	.	.	.	.	.	.	.	2A/	-a	1a\	Do-	2a,<\	-a	2cc\	-a
=47-	=47-	=47-	=47-	=47-	=47-	=47-	=47-	=47-	=47-	=47-	=47-	=47-	=47-	=47-	=47-
.	.	.	.	.	.	.	.	2.e\	Do-	.	.	2.b\	Do-	2.ee\	Do-
.	.	.	.	.	.	.	.	.	.	2g#X\	-mi-	.	.	.	.
.	.	.	.	.	.	.	.	4e\	-mi-	.	.	4b\	-mi-	4ee\	-mi-
=48-	=48-	=48-	=48-	=48-	=48-	=48-	=48-	=48-	=48-	=48-	=48-	=48-	=48-	=48-	=48-
2r	.	2r	.	2r	.	2r	.	1A	-nus	1a	-nus	1cc	-nus	1ee	-nus
2A/	et	2a\	et	2cc\	et	2cc\	et	.	.	.	.	.	.	.	.
=49-	=49-	=49-	=49-	=49-	=49-	=49-	=49-	=49-	=49-	=49-	=49-	=49-	=49-	=49-	=49-
2.Bny/	fa-	2.g\	fa-	2.b\	fa-	2.dd\	fa-	0r	.	0r	.	0r	.	0r	.
4B/	-ctus	4g\	-ctus	4b\	-ctus	4dd\	-ctus	.	.	.	.	.	.	.	.
=50-	=50-	=50-	=50-	=50-	=50-	=50-	=50-	=50-	=50-	=50-	=50-	=50-	=50-	=50-	=50-
1c	eſt	2g\	eſt	1g	eſt	1ee	eſt	.	.	.	.	.	.	.	.
.	.	1g\	mi-	.	.	.	.	.	.	.	.	.	.	.	.
=51-	=51-	=51-	=51-	=51-	=51-	=51-	=51-	=51-	=51-	=51-	=51-	=51-	=51-	=51-	=51-
1A	mi-	.	.	1a	mi-	1cc	mi-	1r	.	1r	.	1r	.	1r	.
.	.	2f#X\	.	.	.	.	.	.	.	.	.	.	.	.	.
=52-	=52-	=52-	=52-	=52-	=52-	=52-	=52-	=52-	=52-	=52-	=52-	=52-	=52-	=52-	=52-
1G	-hi	1g	-hi	1dd	-hi	1b	-hi	2r	.	2r	.	2r	.	2r	.
.	.	.	.	.	.	.	.	2g\	et	2gny\	et	2b\	et	2dd\	et
=53-	=53-	=53-	=53-	=53-	=53-	=53-	=53-	=53-	=53-	=53-	=53-	=53-	=53-	=53-	=53-
0r	.	0r	.	0r	.	0r	.	2.e\	fa-	2.g\	fa-	2.cc\	fa-	2.ee\	fa-
!	!	!	!	!	!	!	!	!	!	!	!	!	!	!LO:SIC:v:t=custos cc	!
.	.	.	.	.	.	.	.	4e\	-ctus	4g\	-ctus	4cc\	-ctus	4ee\	-ctus
!	!	!	!	!	!	!	!	!	!	!	!	!	!	!LO:LB:g=original	!
=54-	=54-	=54-	=54-	=54-	=54-	=54-	=54-	=54-	=54-	=54-	=54-	=54-	=54-	=54-	=54-
.	.	.	.	.	.	.	.	1f	eſt	1a	eſt	2a\	eſt	1cc	eſt
.	.	.	.	.	.	.	.	.	.	.	.	1cc\	mi-	.	.
=55-	=55-	=55-	=55-	=55-	=55-	=55-	=55-	=55-	=55-	=55-	=55-	=55-	=55-	=55-	=55-
1r	.	1r	.	1r	.	1r	.	1d	mi-	1fny	mi-	.	.	1ff	mi-
.	.	.	.	.	.	.	.	.	.	.	.	2b\	.	.	.
=56-	=56-	=56-	=56-	=56-	=56-	=56-	=56-	=56-	=56-	=56-	=56-	=56-	=56-	=56-	=56-
2r	.	2r	.	2r	.	2r	.	2c/	-hi	2g\	-hi	2cc,<\	-hi	2ee\	-hi
!	!	!	!	!	!	!	!	!	!	!LO:SIC:v:t=custos g	!	!LO:SIC:v:t=custos b	!	!	!
2c/	et	2g\	et	2g/	et	2cc\	et	2c/	in	2g\	in	2cc\	in	2ee\	in
!	!	!	!	!	!	!	!	!	!	!LO:LB:g=original	!	!LO:LB:g=original	!	!	!
=57-	=57-	=57-	=57-	=57-	=57-	=57-	=57-	=57-	=57-	=57-	=57-	=57-	=57-	=57-	=57-
2.g\	fa-	2.g\	fa-	2.b\	fa-	2.dd\	fa-	2.G/	ſa-	2.g\	sa-	2.b\	sa-	2.dd\	fa-
4g\	-ctus	4g\	-ctus	4b\	-ctus	4dd\	-ctus	4G/	-lu-	4g\	-lu-	4b\	-lu-	4dd\	-lu-
=58-	=58-	=58-	=58-	=58-	=58-	=58-	=58-	=58-	=58-	=58-	=58-	=58-	=58-	=58-	=58-
1g	eſt	1g	eſt	1b	eſt	1dd	eſt	1G,<	-tem	1g,<	-tem	1b,<	-tem	1dd,<	-tem
=59-	=59-	=59-	=59-	=59-	=59-	=59-	=59-	=59-	=59-	=59-	=59-	=59-	=59-	=59-	=59-
!	!	!	!	!	!	!LO:SIC:v:t=custos dd	!	!	!	!	!	!	!	!	!
1c	mi-	1e	mi-	1cc	mi-	1cc	mi-	1c	mi-	1g	fa-	1g	in	1ee	fa-
!	!	!	!	!	!	!LO:LB:g=original	!	!	!	!	!	!	!	!	!
=60-	=60-	=60-	=60-	=60-	=60-	=60-	=60-	=60-	=60-	=60-	=60-	=60-	=60-	=60-	=60-
2g\	-hi	2g\	-hi	2b\	-hi	2dd\	-hi	2G/	-hi	2g\	-ctus	2b\	ſa-	2dd\	-ctus
!	!	!LO:SIC:v:t=custos d	!	!	!	!	!	!LO:SIC:v:t=custos d	!	!	!	!	!	!	!
2g\	in	2d/	in	2g/	in	2dd\	in	2G/	in	2g\	eſt	2b\	-lu-	2dd\	in
!	!	!LO:LB:g=original	!	!	!	!	!	!LO:LB:g=original	!	!	!	!	!	!	!
=61-	=61-	=61-	=61-	=61-	=61-	=61-	=61-	=61-	=61-	=61-	=61-	=61-	=61-	=61-	=61-
1.d	sa-	2.d/	sa-	2a\	sa-	1.dd	ſa-	1.d	ſa-	2f#X\	in	2a,<\	-tem	1.dd	fa-
!	!	!	!	!LO:SIC:v:t=custos a	!	!	!	!	!	!	!	!	!	!	!
.	.	.	.	2g/	.	.	.	.	.	1g\	ſa-	2b\	in	.	.
.	.	4e/	.	.	.	.	.	.	.	.	.	.	.	.	.
!	!	!	!	!LO:LB:g=original	!	!	!	!	!	!	!	!	!	!	!
=62-	=62-	=62-	=62-	=62-	=62-	=62-	=62-	=62-	=62-	=62-	=62-	=62-	=62-	=62-	=62-
.	.	4f#X\	.	2.a\	.	.	.	.	.	.	.	2.a\	ſa-	.	.
.	.	4g\	.	.	.	.	.	.	.	.	.	.	.	.	.
2d\	-lu-	4a\	.	.	.	2dd\	-lu-	2d\	-lu-	2f#X\	-lu-	.	.	2dd\	-lu-
.	.	4d/	-lu-	4a\	-lu-	.	.	.	.	.	.	4a\	-lu-	.	.
=63-	=63-	=63-	=63-	=63-	=63-	=63-	=63-	=63-	=63-	=63-	=63-	=63-	=63-	=63-	=63-
!LO:SIC:v:t=custos c	!	!	!	!LO:TX:t=P:problem:oddech jako rozdzielacz słów:global	!	!	!	!	!	!	!	!	!	!	!
1g	-tem	1d,<	-tem	1g,<	-tem	1b	-tem	1G	-tem	1g	-tem	1b	-tem	1dd	-tem
!LO:LB:g=original	!	!	!	!	!	!	!	!	!	!	!	!	!	!	!
=64-	=64-	=64-	=64-	=64-	=64-	=64-	=64-	=64-	=64-	=64-	=64-	=64-	=64-	=64-	=64-
1c	i-	1g	i-	1cc	i-	1ee	i-	00r	.	00r	.	00r	.	00r	.
=65-	=65-	=65-	=65-	=65-	=65-	=65-	=65-	=65-	=65-	=65-	=65-	=65-	=65-	=65-	=65-
2G/	-ste	2g\	-ste	2b\	-ſte	2dd\	-ste	.	.	.	.	.	.	.	.
!	!	!	!	!LO:TX:b:t=re	!	!	!	!	!	!	!	!	!	!	!
1A/	De-	1e\	De-	1a\	De-	1cc\	De-	.	.	.	.	.	.	.	.
=66-	=66-	=66-	=66-	=66-	=66-	=66-	=66-	=66-	=66-	=66-	=66-	=66-	=66-	=66-	=66-
!	!	!	!	!LO:TX:b:t=ve	!	!	!	!	!	!	!	!	!	!	!
2A/	-us	2a\	-us	2a\	-us	2dd\	-us	.	.	.	.	.	.	.	.
=67-	=67-	=67-	=67-	=67-	=67-	=67-	=67-	=67-	=67-	=67-	=67-	=67-	=67-	=67-	=67-
1e	me-	(2a\	me-	1b	me-	1ee	me-	.	.	.	.	.	.	.	.
.	.	2g#X\)	.	.	.	.	.	.	.	.	.	.	.	.	.
=68-	=68-	=68-	=68-	=68-	=68-	=68-	=68-	=68-	=68-	=68-	=68-	=68-	=68-	=68-	=68-
1A	-us	1a	-us	1a	-us	1cc#X	-us	2r	.	2r	.	2r	.	2r	.
.	.	.	.	.	.	.	.	2a\	et	2a\	et	2cc#X\	et	2ee\	et
=69-	=69-	=69-	=69-	=69-	=69-	=69-	=69-	=69-	=69-	=69-	=69-	=69-	=69-	=69-	=69-
1r	.	1r	.	1r	.	1r	.	4d\	glo-	4fny\	glo-	4dd\	glo-	4ff\	glo-
.	.	.	.	.	.	.	.	8d\	-ri-	8f\	-ri-	8dd\	-ri-	8ff\	-ri-
.	.	.	.	.	.	.	.	8e\	-fi-	8g\	-fi-	8ccny\	-fi-	8ee\	-fi-
.	.	.	.	.	.	.	.	4f\	-ca-	4a\	-ca-	4a\	-ca-	4cc\	-ca-
.	.	.	.	.	.	.	.	4d\	-bo	4f\	-bo	4dd,<\	-bo	4ff\	-bo
=70-	=70-	=70-	=70-	=70-	=70-	=70-	=70-	=70-	=70-	=70-	=70-	=70-	=70-	=70-	=70-
2a\	et	2a\	et	2a\	et	2ee\	et	2A/	e-	2a\	e-	4dd\	e-	2ee\	e-
.	.	.	.	.	.	.	.	.	.	.	.	4cc#X\	.	.	.
4d\	glo-	4fny\	glo-	4a\	glo-	4ff\	glo-	2d\	-um	2a\	-um	2a\	-um	2dd\	-um
8d\	-ri-	8f\	-ri-	8a\	-ri-	8ff\	-ri-	.	.	.	.	.	.	.	.
8e\	-fi-	8gny\	-fi-	8cc\	-fi-	8ee\	-fi-	.	.	.	.	.	.	.	.
=71-	=71-	=71-	=71-	=71-	=71-	=71-	=71-	=71-	=71-	=71-	=71-	=71-	=71-	=71-	=71-
4f\	-ca-	4a\	-ca-	4a\	-ca-	4ccny\	-ca-	2r	.	2r	.	2r	.	2r	.
4d\	-bo	4f\	-bo	4dd\	-bo	4ff\	-bo	.	.	.	.	.	.	.	.
*	*	*	*	*	*	*	*	*	*	*	*ij	*	*ij	*	*
2A/	e-	2a\	e-	(4dd\	e-	2ee\	e-	2a\	et	2a\	et	2a\	et	2ee\	et
.	.	.	.	4cc#X\)	.	.	.	.	.	.	.	.	.	.	.
=72-	=72-	=72-	=72-	=72-	=72-	=72-	=72-	=72-	=72-	=72-	=72-	=72-	=72-	=72-	=72-
2d\	-um	2a\	-um	2dd\	-um	2dd\	-um	4d\	glo-	4f\	glo-	4a\	glo-	4ff\	glo-
.	.	.	.	.	.	.	.	8d\	-ri-	8f\	-ri-	8a\	-ri-	8ff\	-ri-
!	!	!	!	!	!	!	!	!	!	!	!	!	!	!LO:SIC:v:t=custos cc	!
.	.	.	.	.	.	.	.	8e\	-fi-	8g\	-fi-	8ccny\	-fi-	8ee\	-fi-
!	!	!	!	!	!	!	!	!	!	!	!	!	!	!LO:LB:g=original	!
2r	.	2r	.	2r	.	2r	.	4f\	-ca-	4a\	-ca-	4a\	-ca-	4cc\	-ca-
!	!	!	!	!	!	!	!	!	!	!LO:SIC:v:t=custos a	!	!LO:SIC:v:t=custos dd	!	!	!
.	.	.	.	.	.	.	.	4d\	-bo	4f\	-bo	4dd\	-bo	4ff\	-bo
!	!	!	!	!	!	!	!	!	!	!LO:LB:g=original	!	!LO:LB:g=original	!	!	!
=73-	=73-	=73-	=73-	=73-	=73-	=73-	=73-	=73-	=73-	=73-	=73-	=73-	=73-	=73-	=73-
*	*ij	*	*	*	*ij	*	*	*	*	*	*	*	*	*	*
2a\	et	2a\	et	2a\	et	2ee\	et	2A/	e-	2a\	e-	(4dd\	e-	2ee\	e-
.	.	.	.	.	.	.	.	.	.	.	.	4cc#X\)	.	.	.
4d\	glo-	4f\	glo-	4a\	glo-	4ff\	glo-	2d\	-um	2a\	-um	2dd\	-um	2dd\	-um
*	*	*	*	*	*	*	*	*	*	*	*Xij	*	*Xij	*	*
8d\	-ri-	8f\	-ri-	8a\	-ri-	8ff\	-ri-	.	.	.	.	.	.	.	.
!	!	!LO:SIC:v:t=custos a	!	!	!	!LO:SIC:v:t=custos cc	!	!	!	!	!	!	!	!	!
8e\	-fi-	8g\	-fi-	8ccny\	-fi-	8ee\	-fi-	.	.	.	.	.	.	.	.
!	!	!LO:LB:g=original	!	!	!	!LO:PB:g=original	!	!	!	!	!	!	!	!	!
=74-	=74-	=74-	=74-	=74-	=74-	=74-	=74-	=74-	=74-	=74-	=74-	=74-	=74-	=74-	=74-
4f\	-ca-	4a\	-ca-	4a\	-ca-	4cc\	-ca-	1r	.	1r	.	1r	.	1r	.
4d\	-bo	4f\	-bo	4dd\	-bo	4ff\	-bo	.	.	.	.	.	.	.	.
2a\	e-	2a\	e-	(4dd\	e-	2ee\	e-	.	.	.	.	.	.	.	.
!	!	!	!	!LO:SIC:v:t=custos dd	!	!	!	!	!	!	!	!	!	!	!
.	.	.	.	4cc#X\)	.	.	.	.	.	.	.	.	.	.	.
!	!	!	!	!LO:LB:g=original	!	!	!	!	!	!	!	!	!	!	!
=75-	=75-	=75-	=75-	=75-	=75-	=75-	=75-	=75-	=75-	=75-	=75-	=75-	=75-	=75-	=75-
1d	-um	1f	-um	1dd	-um	1dd	-um	2.d\	De-	2.f\	De-	2.a\	De-	2.dd\	De-
*	*Xij	*	*	*	*Xij	*	*	*	*	*	*	*	*	*	*
.	.	.	.	.	.	.	.	4d\	-us	4f\	-us	4a\	-us	4dd\	-us
=76-	=76-	=76-	=76-	=76-	=76-	=76-	=76-	=76-	=76-	=76-	=76-	=76-	=76-	=76-	=76-
0r	.	0r	.	0r	.	0r	.	2d\	Pa-	2f\	Pa-	2a\	Pa-	2dd\	Pa-
.	.	.	.	.	.	.	.	2A/	-tris	2e,</	-tris	2a,<\	-tris	2cc#X,<\	-tris
=77-	=77-	=77-	=77-	=77-	=77-	=77-	=77-	=77-	=77-	=77-	=77-	=77-	=77-	=77-	=77-
!	!	!	!	!	!	!	!	!LO:SIC:v:t=custos A	!	!	!	!	!	!	!
.	.	.	.	.	.	.	.	1B-X	me-	2.d/	me-	(2a\	me-	1.dd	me-
.	.	.	.	.	.	.	.	.	.	.	.	2g\)	.	.	.
.	.	.	.	.	.	.	.	.	.	4e/	.	.	.	.	.
!	!	!	!	!	!	!	!	!LO:LB:g=original	!	!	!	!	!	!	!
=78-	=78-	=78-	=78-	=78-	=78-	=78-	=78-	=78-	=78-	=78-	=78-	=78-	=78-	=78-	=78-
2r	.	2r	.	2r	.	2r	.	1A	-i	2f\	.	1a	-i	.	.
2A/	et	2a\	et	2cc#X\	et	2ee\	et	.	.	2e/	-i	.	.	2cc#X\	-i
=79-	=79-	=79-	=79-	=79-	=79-	=79-	=79-	=79-	=79-	=79-	=79-	=79-	=79-	=79-	=79-
4d\	e-	4a\	e-	4dd\	e-	4ff\	e-	1r	.	1r	.	1r	.	1r	.
4c#X/	-xal-	4a\	-xal-	4a\	-xal-	4ee\	-xal-	.	.	.	.	.	.	.	.
!LO:SIC:v:t=custos B-	!	!	!	!	!	!	!	!	!	!	!	!	!	!	!
4d\	-ta-	4a\	-ta-	4a\	-ta-	4dd\	-ta-	.	.	.	.	.	.	.	.
!LO:LB:g=original	!	!	!	!	!	!	!	!	!	!	!	!	!	!	!
4B-X/	-bo	4g\	-bo	4dd\	-bo	4dd\	-bo	.	.	.	.	.	.	.	.
=80-	=80-	=80-	=80-	=80-	=80-	=80-	=80-	=80-	=80-	=80-	=80-	=80-	=80-	=80-	=80-
2A/	e-	4e/	e-	2ee\	e-	(4dd\	e-	4r	.	4r	.	4r	.	4r	.
.	.	4a\	-um	.	.	4cc#X\)	.	4a\	et	4a\	et	4cc#X\	et	4ee\	et
4d\	-um	2r	.	4dd\	-um	2a/	-um	4d\	e-	4a\	e-	4dd\	e-	4ff\	e-
4r	.	.	.	4r	.	.	.	4c#X/	-xal-	4a\	-xal-	4a\	-xal-	4ee\	-xal-
=81-	=81-	=81-	=81-	=81-	=81-	=81-	=81-	=81-	=81-	=81-	=81-	=81-	=81-	=81-	=81-
2r	.	2r	.	2r	.	2r	.	4d\	-ta-	4a\	-ta-	4a\	-ta-	4dd\	-ta-
.	.	.	.	.	.	.	.	4B-X/	-bo	4g\	-bo	4dd\	-bo	4dd\	-bo
!	!	!	!	!	!	!	!	!	!	!LO:TX:t=P:problem:zamazana nuta	!	!	!	!	!
4r	.	4r	.	4r	.	4r	.	2A/	e-	2e/	e-	2ee\	e-	(4dd\	e-
*	*ij	*	*ij	*	*ij	*	*ij	*	*	*	*	*	*	*	*
4a\	et	4a\	et	4cc#X\	et	4ee\	et	.	.	.	.	.	.	4cc#X\)	.
=82-	=82-	=82-	=82-	=82-	=82-	=82-	=82-	=82-	=82-	=82-	=82-	=82-	=82-	=82-	=82-
4d\	e-	4a\	e-	4dd\	e-	4ff\	e-	4d\	-um	4a\	-um	4dd\	-um	2a/	-um
4c#X/	-xal-	4a\	-xal-	4ee\	-xal-	4ee\	-xal-	4r	.	4ryy	.	4r	.	.	.
4d\	-ta-	4a\	-ta-	4a\	-ta-	4dd\	-ta-	2r	.	2r	.	2r	.	2r	.
4A/	-bo	4a\	-bo	4ccny\	-bo	4ccny\	-bo	.	.	.	.	.	.	.	.
=83-	=83-	=83-	=83-	=83-	=83-	=83-	=83-	=83-	=83-	=83-	=83-	=83-	=83-	=83-	=83-
*	*	*	*	*	*	*	*	*	*	*	*	*	*ij	*	*ij
2e\	e-	(4a\	e-	2b\	e-	2ee\	e-	2d\	et	2e/	et	2b\	et	2ee\	et
.	.	4g#X\)	.	.	.	.	.	.	.	.	.	.	.	.	.
2A/	-um	2a\	-um	2a\	-um	2cc\	-um	4a\	e-	4e/	e-	4ccny\	e-	4ee\	e-
*	*Xij	*	*Xij	*	*Xij	*	*Xij	*	*	*	*	*	*	*	*
.	.	.	.	.	.	.	.	4A/	-xal-	4a\	-xal-	4cc\	-xal-	4ee\	-xal-
=84-	=84-	=84-	=84-	=84-	=84-	=84-	=84-	=84-	=84-	=84-	=84-	=84-	=84-	=84-	=84-
0r	.	0r	.	0r	.	0r	.	4d\	-ta-	4f\	-ta-	4a\	-ta-	4dd\	-ta-
.	.	.	.	.	.	.	.	4A/	-bo	4a\	-bo	4cc\	-bo	4ccny\	-bo
!	!	!	!	!	!	!	!	!	!	!	!	!	!	!LO:SIC:v:t=custos cc#	!
.	.	.	.	.	.	.	.	2e\	e-	(4a\	e-	2b\	e-	2ee\	e-
!	!	!	!	!	!	!	!	!	!	!LO:SIC:v:t=custos a	!	!	!	!	!
.	.	.	.	.	.	.	.	.	.	4g#X\)	.	.	.	.	.
!	!	!	!	!	!	!	!	!	!	!LO:LB:g=original	!	!	!	!LO:LB:g=original	!
=85-	=85-	=85-	=85-	=85-	=85-	=85-	=85-	=85-	=85-	=85-	=85-	=85-	=85-	=85-	=85-
!	!	!	!	!	!	!	!	!	!	!	!	!LO:SIC:v:t=custos cc	!	!	!
.	.	.	.	.	.	.	.	1A,<	-um	1a	-um	1a	-um	1cc#X,<	-um
*	*	*	*	*	*	*	*	*	*	*	*	*	*Xij	*	*Xij
!	!	!	!	!	!	!	!	!	!	!	!	!LO:LB:g=original	!	!	!
=86-	=86-	=86-	=86-	=86-	=86-	=86-	=86-	=86-	=86-	=86-	=86-	=86-	=86-	=86-	=86-
1r	.	1r	.	1r	.	1r	.	2.F/	Do-	2.a\	Do-	2.cc\	Do-	2.ff\	Do-
.	.	.	.	.	.	.	.	4F/	-mi-	4a\	-mi-	4cc\	-mi-	4ff\	-mi-
=87-	=87-	=87-	=87-	=87-	=87-	=87-	=87-	=87-	=87-	=87-	=87-	=87-	=87-	=87-	=87-
2.f\	Do-	2.a\	Do-	2.cc\	Do-	2.ff\	Do-	2F/	-nus	2a\	-nus	2a\	-nus	2ccny\	-nus
.	.	.	.	.	.	.	.	2F/	qua-	2f\	qua-	2a\	qua-	2cc\	qua-
4f\	-mi-	4a\	-mi-	4cc\	-mi-	4ff\	-mi-	.	.	.	.	.	.	.	.
=88-	=88-	=88-	=88-	=88-	=88-	=88-	=88-	=88-	=88-	=88-	=88-	=88-	=88-	=88-	=88-
2cny/	-nus	2gny\	-nus	2cc\	-nus	2ee\	-nus	1cny	-si	1gny	-si	1cc	-si	1ee,<	-si
2c/	qua-	2g\	qua-	2cc\	qua-	2ee\	qua-	.	.	.	.	.	.	.	.
=89-	=89-	=89-	=89-	=89-	=89-	=89-	=89-	=89-	=89-	=89-	=89-	=89-	=89-	=89-	=89-
!	!	!LO:SIC:v:t=custos g	!	!	!	!LO:SIC:v:t=custos dd	!	!	!	!	!	!	!	!	!
1c	-si	1g	-si	1g	-si	1cc	-si	2c/	vir	2g\	vir	2cc\	vir	2ee\	vir
.	.	.	.	.	.	.	.	2c/	pu-	2g\	pu-	2cc\	pu-	2ee\	pu-
!	!	!LO:PB:g=original	!	!	!	!LO:LB:g=original	!	!	!	!	!	!	!	!	!
=90-	=90-	=90-	=90-	=90-	=90-	=90-	=90-	=90-	=90-	=90-	=90-	=90-	=90-	=90-	=90-
2g\	vir	2g\	vir	2b-X\	vir	2dd\	vir	1G	-gna-	1g	-gna-	1b-X	-gna-	1dd	-gna-
2g\	pu-	2g\	pu-	2b-\	pu-	2dd\	pu-	.	.	.	.	.	.	.	.
=91-	=91-	=91-	=91-	=91-	=91-	=91-	=91-	=91-	=91-	=91-	=91-	=91-	=91-	=91-	=91-
1g	-gna-	1g	-gna-	1b-	-gna-	1dd	-gna-	1G	-tor	1d	-tor,	1b-	-tor,	1dd	-tor
=92-	=92-	=92-	=92-	=92-	=92-	=92-	=92-	=92-	=92-	=92-	=92-	=92-	=92-	=92-	=92-
!	!	!	!	!LO:SIC:v:t=custos b-	!	!	!	!	!	!	!	!	!	!	!
4d\	-tor	4f,<\	-tor	4a\	-tor	4dd\	-tor	2r	.	2r	.	2r	.	2r	.
!	!	!	!	!LO:PB:g=original	!	!	!	!	!	!	!	!	!	!	!
4B-X/	o-	4f\	o-	4b-X\	o-	4dd\	o-	.	.	.	.	.	.	.	.
4.B-/	-mni-	4.f\	-mni-	4.b-\	-mni-	4.dd\	-mni-	4r	.	4r	.	4r	.	4r	.
!	!	!	!	!	!	!	!	!LO:SIC:v:t=custos B-	!	!	!	!	!	!	!
.	.	.	.	.	.	.	.	4B-X/	o-	4f\	o-	4b-X\	o-	4dd\	o-
8B-/	-po-	8f\	-po-	8b-\	-po-	8dd\	-po-	.	.	.	.	.	.	.	.
!	!	!	!	!	!	!	!	!LO:LB:g=original	!	!	!	!	!	!	!
=93-	=93-	=93-	=93-	=93-	=93-	=93-	=93-	=93-	=93-	=93-	=93-	=93-	=93-	=93-	=93-
2B-/	-tens	2f\	-tens	2dd\	-tens	2ff\	-tens	4.B-X/	-mni-	4.f\	-mni-	4.b-\	-mni-	4.dd\	-mni-
.	.	.	.	.	.	.	.	8B-/	-po-	8f\	-po-	8b-\	-po-	8dd\	-po-
!	!	!	!	!	!	!	!	!	!	!	!	!	!	!LO:TX:t=P:problem:zamazana nuta	!
4r	.	4r	.	4r	.	4r	.	2B-/	-tens	2f\	-tens	2dd,<\	-tens	2ff\	-tens
!LO:SIC:v:t=custos B-	!	!	!	!	!	!	!	!	!	!	!	!	!	!	!
*	*	*	*	*	*	*	*ij	*	*	*	*	*	*	*	*
4B-X/	o-	4f\	o-	4b-X\	o-	4dd\	o-	.	.	.	.	.	.	.	.
!LO:PB:g=original	!	!	!	!	!	!	!	!	!	!	!	!	!	!	!
=94-	=94-	=94-	=94-	=94-	=94-	=94-	=94-	=94-	=94-	=94-	=94-	=94-	=94-	=94-	=94-
4.B-X/	-mni-	4.f\	-mni-	4.b-\	-mni-	4.dd\	-mni-	4r	.	4r	.	4r	.	4r	.
*	*	*	*	*	*	*	*	*	*	*	*	*	*ij	*	*
.	.	.	.	.	.	.	.	4B-X/	o-	4f\	o-	4dd\	o-	4ff\	o-
8B-/	-po-	8f\	-po-	8b-\	-po-	8dd\	-po-	.	.	.	.	.	.	.	.
2B-/	-tens	2f\	-tens	2b-\	-tens	2dd\	-tens	4.B-/	-mni-	4.f\	-mni-	4.dd\	-mni-	4.ff\	-mni-
*	*	*	*	*	*	*	*Xij	*	*	*	*	*	*	*	*
.	.	.	.	.	.	.	.	8B-/	-po-	8f\	-po-	8dd\	-po-	8ff\	-po-
=95-	=95-	=95-	=95-	=95-	=95-	=95-	=95-	=95-	=95-	=95-	=95-	=95-	=95-	=95-	=95-
2r	.	2r	.	2r	.	2r	.	2B-,</	-tens	2f\	-tens	2b-X\	-tens	2dd,<\	-tens
*	*	*	*	*	*	*	*	*	*	*	*	*	*Xij	*	*
1d\	no-	1d/	no-	1a\	no-	1dd\	no-	1d\	no-	4.f\	no-	4.a\	no-	1dd\	no-
.	.	.	.	.	.	.	.	.	.	8f\	-men	8g/	.	.	.
=96-	=96-	=96-	=96-	=96-	=96-	=96-	=96-	=96-	=96-	=96-	=96-	=96-	=96-	=96-	=96-
.	.	.	.	.	.	.	.	.	.	2f\	e-	2a\	.	.	.
2g\	-men	2d/	-men	2ee\	-men	2dd\	-men	2G/	-men	2g\	-ius	2b-X\	-men	2ee,<\	-men
=97-	=97-	=97-	=97-	=97-	=97-	=97-	=97-	=97-	=97-	=97-	=97-	=97-	=97-	=97-	=97-
2g\	e-	2a\	e-	(2ee\	e-	0a	e-	0A	e-	2g\	no-	0a	e-	2cc#X\	e-
!	!	!	!	!	!	!	!	!	!	!LO:SIC:v:t=custos e	!	!	!	!	!
2d\	.	4.f\	.	2dd\)	.	.	.	.	.	2f\	-men	.	.	1dd\	.
.	.	8g\	.	.	.	.	.	.	.	.	.	.	.	.	.
!	!	!	!	!	!	!	!	!	!	!LO:LB:g=original	!	!	!	!	!
=98-	=98-	=98-	=98-	=98-	=98-	=98-	=98-	=98-	=98-	=98-	=98-	=98-	=98-	=98-	=98-
1a	.	1a	.	0a	-ius	.	.	.	.	1e	e-	.	.	.	.
!	!	!	!	!	!	!	!	!	!	!	!	!	!	!LO:SIC:v:t=custos dd	!
.	.	.	.	.	.	.	.	.	.	.	.	.	.	2cc#X\	.
!	!	!	!	!	!	!	!	!	!	!	!	!	!	!LO:LB:g=original	!
=99-	=99-	=99-	=99-	=99-	=99-	=99-	=99-	=99-	=99-	=99-	=99-	=99-	=99-	=99-	=99-
!	!	!	!	!	!	!	!	!	!	!	!	!LO:SIC:v:t=custos cc#	!	!	!
1d	-ius	1f#X	-ius	.	.	1a,<	-ius	1d	-ius	1f#X	-ius	1a	-ius	1dd	-ius
!	!	!	!	!	!	!	!	!	!	!	!	!LO:LB:g=original	!	!	!
=100-	=100-	=100-	=100-	=100-	=100-	=100-	=100-	=100-	=100-	=100-	=100-	=100-	=100-	=100-	=100-
4a\	cur-	4a\	cur-	4cc\	cur-	4cc\	cur-	00r	.	00r	.	00r	.	00r	.
4a\	-rus	4a\	-rus	4cc\	-rus	4dd\	.	.	.	.	.	.	.	.	.
1a\	Pha-	1a\	Pha-	1cc\	Pha-	1ee\	.	.	.	.	.	.	.	.	.
=101-	=101-	=101-	=101-	=101-	=101-	=101-	=101-	=101-	=101-	=101-	=101-	=101-	=101-	=101-	=101-
2g#X\	-ro-	2b\	-ra-	2bny\	-ra-	2ee\	-rus	.	.	.	.	.	.	.	.
=102-	=102-	=102-	=102-	=102-	=102-	=102-	=102-	=102-	=102-	=102-	=102-	=102-	=102-	=102-	=102-
!	!	!LO:SIC:v:t=custos f#	!	!	!	!	!	!	!	!	!	!	!	!	!
1a	-o-	1a	-o-	4cc#X\	-o-	4ee\	Pha-	.	.	.	.	.	.	.	.
.	.	.	.	2dd\	.	4ff\	-ra-	.	.	.	.	.	.	.	.
!	!	!	!	!	!	!LO:SIC:v:t=custos dd	!	!	!	!	!	!	!	!	!
.	.	.	.	.	.	2ee\	-o-	.	.	.	.	.	.	.	.
.	.	.	.	4cc#\	.	.	.	.	.	.	.	.	.	.	.
!	!	!LO:LB:g=original	!	!	!	!LO:LB:g=original	!	!	!	!	!	!	!	!	!
=103-	=103-	=103-	=103-	=103-	=103-	=103-	=103-	=103-	=103-	=103-	=103-	=103-	=103-	=103-	=103-
2d\	-nis	2f#X,<\	-nis	2dd\	-nis	2dd,<\	-nis	.	.	.	.	.	.	.	.
!	!	!	!	!LO:TX:b:t=re	!	!	!	!	!	!	!	!	!	!	!
4d\	et	4f#\	et	4a\	et	4dd\	et	.	.	.	.	.	.	.	.
!	!	!	!	!LO:TX:b:t=ve	!	!	!	!	!	!	!	!	!	!	!
!	!	!	!	!LO:SIC:v:t=custos b	!	!	!	!	!	!	!	!	!	!	!
4d\	e-	4f#\	e-	4a\	e-	4dd\	e-	.	.	.	.	.	.	.	.
!	!	!	!	!LO:LB:g=original	!	!	!	!	!	!	!	!	!	!	!
=104-	=104-	=104-	=104-	=104-	=104-	=104-	=104-	=104-	=104-	=104-	=104-	=104-	=104-	=104-	=104-
4.gny\	-xer-	4.g\	-xer-	4.b\	-xer-	4.dd\	-xer-	00r	.	00r	.	00r	.	00r	.
8g\	-ci-	8g\	-ci-	8b\	-ci-	8dd\	-ci-	.	.	.	.	.	.	.	.
2e,<\	-tum	2g\	-tum	2ccny\	-tum	2ee,<\	-tum	.	.	.	.	.	.	.	.
=105-	=105-	=105-	=105-	=105-	=105-	=105-	=105-	=105-	=105-	=105-	=105-	=105-	=105-	=105-	=105-
1f	e-	1fny	e-	2.a\	e-	2.cc\	e-	.	.	.	.	.	.	.	.
.	.	.	.	4b\	.	4dd\	.	.	.	.	.	.	.	.	.
=106-	=106-	=106-	=106-	=106-	=106-	=106-	=106-	=106-	=106-	=106-	=106-	=106-	=106-	=106-	=106-
2c/	-ius	2g,<\	-ius	2cc\	-ius	2ee,<\	-ius	.	.	.	.	.	.	.	.
!LO:SIC:v:t=custos d	!	!	!	!	!	!	!	!	!	!	!	!	!	!	!
2c/	pro-	2g\	pro-	2cc\	pro-	2ee\	pro-	.	.	.	.	.	.	.	.
!LO:LB:g=original	!	!	!	!	!	!	!	!	!	!	!	!	!	!	!
=107-	=107-	=107-	=107-	=107-	=107-	=107-	=107-	=107-	=107-	=107-	=107-	=107-	=107-	=107-	=107-
8d\L	-ie-	2f\	-ie-	2a\	-ie-	8ff\L	-ie-	.	.	.	.	.	.	.	.
8c\J	.	.	.	.	.	8ee\	.	.	.	.	.	.	.	.	.
8B-X/L	.	.	.	.	.	8dd\	.	.	.	.	.	.	.	.	.
8A/J	.	.	.	.	.	8cc\J	.	.	.	.	.	.	.	.	.
4G/	-cit	4g\	-cit	4b-X\	-cit	4dd\	-cit	.	.	.	.	.	.	.	.
4d\	in	4a\	in	4dd\	in	4ff\	in	.	.	.	.	.	.	.	.
=108-	=108-	=108-	=108-	=108-	=108-	=108-	=108-	=108-	=108-	=108-	=108-	=108-	=108-	=108-	=108-
2a\	ma-	2a\	ma-	(4dd\	ma-	2ee\	ma-	4r	.	4r	.	4r	.	4r	.
.	.	.	.	4cc#X\)	.	.	.	4A/	pro-	4a\	pro-	4cc#X\	pro-	4ee\	pro-
2d\	-re	2f\	-re	2a\	-re	2dd\	-re	8d\L	-ie-	2a\	-ie-	2dd\	-ie-	8ff\L	-ie-
.	.	.	.	.	.	.	.	8c\	.	.	.	.	.	8ee\	.
.	.	.	.	.	.	.	.	8B-X\	.	.	.	.	.	8dd\	.
.	.	.	.	.	.	.	.	8A\J	.	.	.	.	.	8ccny\J	.
=109-	=109-	=109-	=109-	=109-	=109-	=109-	=109-	=109-	=109-	=109-	=109-	=109-	=109-	=109-	=109-
2r	.	2r	.	2r	.	2r	.	4G/	-cit	4b-X\	-cit	4b-X\	-cit	4dd\	-cit
.	.	.	.	.	.	.	.	4d\	in	4a\	in	4dd\	in	4ff\	in
4r	.	4r	.	4r	.	4r	.	2A/	ma-	2a\	ma-	4dd\	ma-	2ee\	ma-
4a\	pro-	4a\	pro-	4cc#X\	pro-	4ee\	pro-	.	.	.	.	4cc#X\	.	.	.
=110-	=110-	=110-	=110-	=110-	=110-	=110-	=110-	=110-	=110-	=110-	=110-	=110-	=110-	=110-	=110-
8d\L	-ie-	2f\	-ie-	2dd\	-ie-	8ff\L	-ie-	2d\	-re	2a\	-re	2dd,<\	-re	2dd\	-re
8c\J	.	.	.	.	.	8ee\	.	.	.	.	.	.	.	.	.
8B-X/L	.	.	.	.	.	8dd\	.	.	.	.	.	.	.	.	.
8A/J	.	.	.	.	.	8cc\J	.	.	.	.	.	.	.	.	.
4G/	-cit	4b-X\	-cit	4b-X\	-cit	4dd\	-cit	2r	.	2r	.	2r	.	2r	.
4d\	in	4a\	in	4dd\	in	4ff\	in	.	.	.	.	.	.	.	.
=111-	=111-	=111-	=111-	=111-	=111-	=111-	=111-	=111-	=111-	=111-	=111-	=111-	=111-	=111-	=111-
!	!	!	!	!	!	!LO:SIC:v:t=custos dd	!	!	!	!	!	!	!	!	!
2a\	ma-	2a\	ma-	(4dd\	ma-	2ee\	ma-	4r	.	4r	.	4r	.	4r	.
*	*	*	*	*	*	*	*	*	*	*	*ij	*	*	*	*
.	.	.	.	4cc#X\)	.	.	.	4A/	pro-	4a\	pro-	4cc#Y\	pro-	4ee\	pro-
!	!	!	!	!	!	!LO:LB:g=original	!	!	!	!	!	!	!	!	!
2d\	-re	2a\	-re	2a\	-re	2dd\	-re	8d\L	-ie-	2fny\	-ie-	2dd\	-ie-	8ff\L	-ie-
.	.	.	.	.	.	.	.	8c\	.	.	.	.	.	8ee\	.
.	.	.	.	.	.	.	.	8B-X\	.	.	.	.	.	8dd\	.
.	.	.	.	.	.	.	.	8A\J	.	.	.	.	.	8cc\J	.
=112-	=112-	=112-	=112-	=112-	=112-	=112-	=112-	=112-	=112-	=112-	=112-	=112-	=112-	=112-	=112-
1r	.	1r	.	1r	.	1r	.	4G/	-cit	4b-X\	-cit	4b-X\	-cit	4dd\	-cit
!	!	!	!	!	!	!	!	!LO:SIC:v:t=custos A	!	!	!	!	!	!	!
.	.	.	.	.	.	.	.	4d\	in	4a\	in	4dd\	in	4ff\	in
!	!	!	!	!	!	!	!	!LO:LB:g=original	!	!	!	!	!	!	!
.	.	.	.	.	.	.	.	2A/	ma-	2a\	ma-	4dd\	ma-	2ee\	ma-
.	.	.	.	.	.	.	.	.	.	.	.	4cc#X\	.	.	.
=113-	=113-	=113-	=113-	=113-	=113-	=113-	=113-	=113-	=113-	=113-	=113-	=113-	=113-	=113-	=113-
2r	.	2r	.	2r	.	2r	.	2d,<\	-re	2f#X,<\	-re	2dd,<\	-re	2dd,<\	-re
*	*	*	*	*	*	*	*	*	*	*	*Xij	*	*	*	*
!	!	!LO:SIC:v:t=custos g	!	!LO:SIC:v:t=custos b-	!	!	!	!	!	!	!	!	!	!	!
2d\	pro-	2f#X\	pro-	2dd\	pro-	2dd\	pro-	2d\	pro-	2a\	pro-	2a\	pro-	2dd\	pro-
!	!	!LO:LB:g=original	!	!LO:LB:g=original	!	!	!	!	!	!	!	!	!	!	!
=114-	=114-	=114-	=114-	=114-	=114-	=114-	=114-	=114-	=114-	=114-	=114-	=114-	=114-	=114-	=114-
1g	-ie-	1g	-ie-	1b-X	-ie-	2.dd\	-ie-	1G	-ie-	1g	-ie-	2.b-X\	-ie-	4dd\	-ie-
.	.	.	.	.	.	.	.	.	.	.	.	.	.	4cc\	.
.	.	.	.	.	.	.	.	.	.	.	.	.	.	4b-X/	.
.	.	.	.	.	.	4cc\	.	.	.	.	.	4ccny\	.	4a/	.
=115-	=115-	=115-	=115-	=115-	=115-	=115-	=115-	=115-	=115-	=115-	=115-	=115-	=115-	=115-	=115-
2d\	-cit	2g\	-cit	2dd\	-cit	2b-X/	-cit	2G/	-cit	2g\	-cit	2dd\	-cit	2b-X,</	-cit
!	!	!	!	!	!	!	!	!	!	!	!	!	!	!LO:SIC:v:t=custos dd	!
2d\	in	2d/	in	2dd\	in	2a/	in	2F#X,</	in	2a\	in	2b-X\	in	2dd\	in
!	!	!	!	!	!	!	!	!	!	!	!	!	!	!LO:LB:g=original	!
=116-	=116-	=116-	=116-	=116-	=116-	=116-	=116-	=116-	=116-	=116-	=116-	=116-	=116-	=116-	=116-
*lig	*	*	*	*	*	*	*	*	*	*	*	*	*	*	*
1d	ma-	1.d	ma-	4b-X\	ma-	0dd	ma-	0G	ma-	0g	ma-	4b-\	ma-	4dd\	ma-
.	.	.	.	4a\	.	.	.	.	.	.	.	4cc\	.	4cc\	.
.	.	.	.	4g/	.	.	.	.	.	.	.	4dd\	.	4b-X/	.
.	.	.	.	4a\	.	.	.	.	.	.	.	4cc\	.	4a/	.
=117-	=117-	=117-	=117-	=117-	=117-	=117-	=117-	=117-	=117-	=117-	=117-	=117-	=117-	=117-	=117-
1g	.	.	.	1g	.	.	.	.	.	.	.	1b-X	.	2.b-X/	.
.	.	2e/	.	.	.	.	.	.	.	.	.	.	.	.	.
.	.	.	.	.	.	.	.	.	.	.	.	.	.	4cc\	.
*Xlig	*	*	*	*	*	*	*	*	*	*	*	*	*	*	*
=118-	=118-	=118-	=118-	=118-	=118-	=118-	=118-	=118-	=118-	=118-	=118-	=118-	=118-	=118-	=118-
!	!	!LO:TX:b:i:t=De SS. Virginibus et Viduis	!	!LO:TX:b:i:t=De SS. Virginibus et Viduis	!	!LO:TX:b:i:t=De SS. Virginibus et\nViduis St 8 V.	!	!LO:TX:b:i:t=De SS. Virginibus et Vi\nduis St 8 V.	!	!	!	!	!	!	!
0d;;l	-re-	0f#X;;l	-re.	0a;;l	-re-	0dd;;l	-re-	0d;;l	-re-	0f#X;;l	-re.	0a;;l	-re	0dd;;l	-re.
==	==	==	==	==	==	==	==	==	==	==	==	==	==	==	==
*-	*-	*-	*-	*-	*-	*-	*-	*-	*-	*-	*-	*-	*-	*-	*-
!!!system-decoration: [s1,s2,s3,s4][s5,s6,s7,s8]
!!!RDF**kern: < = below
!!!RDF**kern: l = terminal long
!!!AIN: 8 empty
!!!ENC: Anastazja Marusiak
!!!END: 2021-10-04
!!!ENC: Marta Lawrence
!!!END: 2021-10-15
